;FLAVOR:Marlin
;TIME:14008
;Filament used: 14.7875m
;Layer height: 0.28
;MINX:37.776
;MINY:89.335
;MINZ:0.28
;MAXX:183.089
;MAXY:130.665
;MAXZ:46.76
;TARGET_MACHINE.NAME:Creality Ender-3 S1 Pro
;Generated with Cura_SteamEngine 5.7.0
M140 S60
M105
M190 S60
M104 S200
M105
M109 S200
M82 ;absolute extrusion mode
; Ender 3 S1 Pro Custom Start G-code
G92 E0 ; Reset Extruder
G28 ; Home all axes
M420 S1 Z10 ; Use saved Bed Mesh
G1 Z2.0 F3000 ; Move Z Axis up little to prevent scratching of Heat Bed
G1 X0.1 Y20 Z0.3 F5000.0 ; Move to start position
G1 X0.1 Y200.0 Z0.3 F1500.0 E15 ; Draw the first line
G1 X0.4 Y200.0 Z0.3 F5000.0 ; Move to side a little
G1 X0.4 Y20 Z0.3 F1500.0 E30 ; Draw the second line
G92 E0 ; Reset Extruder
G1 Z2.0 F3000 ; Move Z Axis up little to prevent scratching of Heat Bed
G1 X5 Y20 Z0.3 F5000.0 ; Move over to prevent blob squish
G92 E0
G92 E0
G1 F2400 E-0.8
;LAYER_COUNT:167
;LAYER:0
M107
M204 S2000
G0 F7500 X95.424 Y93 Z0.28
M204 S500
;TYPE:SKIRT
G1 F2400 E0
G1 F1500 X129.424 Y93 E1.58318
G1 X129.424 Y127 E3.16636
G1 X95.424 Y127 E4.74955
G1 X95.424 Y93 E6.33273
M204 S2000
G0 F7500 X95.824 Y93.4
M204 S500
G1 F1500 X129.024 Y93.4 E7.87866
G1 X129.024 Y126.6 E9.42459
G1 X95.824 Y126.6 E10.97052
G1 X95.824 Y93.4 E12.51645
M204 S2000
G0 F7500 X96.224 Y93.8
M204 S500
G1 F1500 X128.624 Y93.8 E14.02513
G1 X128.624 Y126.2 E15.53381
G1 X96.224 Y126.2 E17.04249
G1 X96.224 Y93.8 E18.55117
M204 S2000
G0 F7500 X96.624 Y94.2
M204 S500
G1 F1500 X128.224 Y94.2 E20.0226
G1 X128.224 Y125.8 E21.49403
G1 X96.624 Y125.8 E22.96546
G1 X96.624 Y94.2 E24.43689
M204 S2000
G0 F7500 X97.024 Y94.6
M204 S500
G1 F1500 X127.824 Y94.6 E25.87106
G1 X127.824 Y125.4 E27.30524
G1 X97.024 Y125.4 E28.73942
G1 X97.024 Y94.6 E30.17359
M204 S2000
G0 F7500 X97.424 Y95
M204 S500
G1 F1500 X127.424 Y95 E31.57052
G1 X127.424 Y125 E32.96745
G1 X97.424 Y125 E34.36437
G1 X97.424 Y95 E35.7613
M204 S2000
G0 F7500 X97.824 Y95.4
M204 S500
G1 F1500 X127.024 Y95.4 E37.12097
G1 X127.024 Y124.6 E38.48065
G1 X97.824 Y124.6 E39.84032
G1 X97.824 Y95.4 E41.19999
M204 S2000
G0 F7500 X98.224 Y95.8
M204 S500
G1 F1500 X126.624 Y95.8 E42.52242
G1 X126.624 Y124.2 E43.84484
G1 X98.224 Y124.2 E45.16726
G1 X98.224 Y95.8 E46.48969
M204 S2000
G0 F7500 X98.624 Y96.2
M204 S500
G1 F1500 X126.224 Y96.2 E47.77486
G1 X126.224 Y123.8 E49.06003
G1 X98.624 Y123.8 E50.3452
G1 X98.624 Y96.2 E51.63037
M204 S2000
G0 F7500 X99.024 Y96.6
M204 S500
G1 F1500 X125.824 Y96.6 E52.87829
G1 X125.824 Y123.4 E54.12621
G1 X99.024 Y123.4 E55.37413
G1 X99.024 Y96.6 E56.62205
M204 S2000
G1 F2400 E55.82205
G0 F7500 X145.424 Y93
M204 S500
G1 F2400 E56.62205
G1 F1500 X179.424 Y93 E58.20524
G1 X179.424 Y127 E59.78842
G1 X145.424 Y127 E61.3716
G1 X145.424 Y93 E62.95478
M204 S2000
G0 F7500 X145.824 Y93.4
M204 S500
G1 F1500 X179.024 Y93.4 E64.50071
G1 X179.024 Y126.6 E66.04665
G1 X145.824 Y126.6 E67.59258
G1 X145.824 Y93.4 E69.13851
M204 S2000
G0 F7500 X146.224 Y93.8
M204 S500
G1 F1500 X178.624 Y93.8 E70.64719
G1 X178.624 Y126.2 E72.15587
G1 X146.224 Y126.2 E73.66455
G1 X146.224 Y93.8 E75.17323
M204 S2000
G0 F7500 X146.624 Y94.2
M204 S500
G1 F1500 X178.224 Y94.2 E76.64466
G1 X178.224 Y125.8 E78.11608
G1 X146.624 Y125.8 E79.58751
G1 X146.624 Y94.2 E81.05894
M204 S2000
G0 F7500 X147.024 Y94.6
M204 S500
G1 F1500 X177.824 Y94.6 E82.49312
G1 X177.824 Y125.4 E83.92729
G1 X147.024 Y125.4 E85.36147
G1 X147.024 Y94.6 E86.79565
M204 S2000
G0 F7500 X147.424 Y95
M204 S500
G1 F1500 X177.424 Y95 E88.19257
G1 X177.424 Y125 E89.5895
G1 X147.424 Y125 E90.98643
G1 X147.424 Y95 E92.38335
M204 S2000
G0 F7500 X147.824 Y95.4
M204 S500
G1 F1500 X177.024 Y95.4 E93.74303
G1 X177.024 Y124.6 E95.1027
G1 X147.824 Y124.6 E96.46237
G1 X147.824 Y95.4 E97.82205
M204 S2000
G0 F7500 X148.224 Y95.8
M204 S500
G1 F1500 X176.624 Y95.8 E99.14447
G1 X176.624 Y124.2 E100.46689
G1 X148.224 Y124.2 E101.78932
G1 X148.224 Y95.8 E103.11174
M204 S2000
G0 F7500 X148.624 Y96.2
M204 S500
G1 F1500 X176.224 Y96.2 E104.39691
G1 X176.224 Y123.8 E105.68208
G1 X148.624 Y123.8 E106.96726
G1 X148.624 Y96.2 E108.25243
M204 S2000
G0 F7500 X149.024 Y96.6
M204 S500
G1 F1500 X175.824 Y96.6 E109.50035
G1 X175.824 Y123.4 E110.74827
G1 X149.024 Y123.4 E111.99619
G1 X149.024 Y96.6 E113.24411
M204 S2000
G0 F7500 X149.424 Y97
M204 S500
;TYPE:SUPPORT
G1 F1500 X175.424 Y97 E114.45478
G1 X175.424 Y123 E115.66545
G1 X149.424 Y123 E116.87611
G1 X149.424 Y97 E118.08678
M204 S2000
G0 F7500 X150 Y97.08
M204 S500
G1 F1500 X150 Y122.92 E119.29
M204 S2000
G0 F7500 X149.504 Y122
M204 S500
G1 F1500 X175.344 Y122 E120.49322
M204 S2000
G1 F2400 E119.69322
G0 F7500 X174 Y122.92
M204 S500
G1 F2400 E120.49322
G1 F1500 X174 Y97.08 E121.69644
M204 S2000
G1 F2400 E120.89644
G0 F7500 X175.344 Y98
M204 S500
G1 F2400 E121.69644
G1 F1500 X149.504 Y98 E122.89966
M204 S2000
G1 F2400 E122.09966
G0 F7500 X149.504 Y100
M204 S500
G1 F2400 E122.89966
G1 F1500 X175.344 Y100 E124.10288
M204 S2000
G1 F2400 E123.30288
G0 F7500 X175.344 Y102
M204 S500
G1 F2400 E124.10288
G1 F1500 X149.504 Y102 E125.3061
M204 S2000
G1 F2400 E124.5061
G0 F7500 X149.504 Y104
M204 S500
G1 F2400 E125.3061
G1 F1500 X175.344 Y104 E126.50931
M204 S2000
G1 F2400 E125.70931
G0 F7500 X175.344 Y106
M204 S500
G1 F2400 E126.50931
G1 F1500 X149.504 Y106 E127.71253
M204 S2000
G1 F2400 E126.91253
G0 F7500 X149.504 Y108
M204 S500
G1 F2400 E127.71253
G1 F1500 X175.344 Y108 E128.91575
M204 S2000
G1 F2400 E128.11575
G0 F7500 X175.344 Y110
M204 S500
G1 F2400 E128.91575
G1 F1500 X149.504 Y110 E130.11897
M204 S2000
G1 F2400 E129.31897
G0 F7500 X149.504 Y112
M204 S500
G1 F2400 E130.11897
G1 F1500 X175.344 Y112 E131.32219
M204 S2000
G1 F2400 E130.52219
G0 F7500 X175.344 Y114
M204 S500
G1 F2400 E131.32219
G1 F1500 X149.504 Y114 E132.52541
M204 S2000
G1 F2400 E131.72541
G0 F7500 X149.504 Y116
M204 S500
G1 F2400 E132.52541
G1 F1500 X175.344 Y116 E133.72863
M204 S2000
G1 F2400 E132.92863
G0 F7500 X175.344 Y118
M204 S500
G1 F2400 E133.72863
G1 F1500 X149.504 Y118 E134.93184
M204 S2000
G1 F2400 E134.13184
G0 F7500 X149.504 Y120
M204 S500
G1 F2400 E134.93184
G1 F1500 X175.344 Y120 E136.13506
M204 S2000
G1 F2400 E135.33506
G0 F7500 X176.289 Y120
G0 X176.277 Y123.853
G0 X172 Y123.865
G0 X172 Y122.92
M204 S500
G1 F2400 E136.13506
G1 F1500 X172 Y97.08 E137.33828
M204 S2000
G1 F2400 E136.53828
G0 F7500 X170 Y97.08
M204 S500
G1 F2400 E137.33828
G1 F1500 X170 Y122.92 E138.5415
M204 S2000
G1 F2400 E137.7415
G0 F7500 X168 Y122.92
M204 S500
G1 F2400 E138.5415
G1 F1500 X168 Y97.08 E139.74472
M204 S2000
G1 F2400 E138.94472
G0 F7500 X166 Y97.08
M204 S500
G1 F2400 E139.74472
G1 F1500 X166 Y122.92 E140.94794
M204 S2000
G1 F2400 E140.14794
G0 F7500 X164 Y122.92
M204 S500
G1 F2400 E140.94794
G1 F1500 X164 Y97.08 E142.15116
M204 S2000
G1 F2400 E141.35116
G0 F7500 X162 Y97.08
M204 S500
G1 F2400 E142.15116
G1 F1500 X162 Y122.92 E143.35438
M204 S2000
G1 F2400 E142.55438
G0 F7500 X160 Y122.92
M204 S500
G1 F2400 E143.35438
G1 F1500 X160 Y97.08 E144.55759
M204 S2000
G1 F2400 E143.75759
G0 F7500 X158 Y97.08
M204 S500
G1 F2400 E144.55759
G1 F1500 X158 Y122.92 E145.76081
M204 S2000
G1 F2400 E144.96081
G0 F7500 X156 Y122.92
M204 S500
G1 F2400 E145.76081
G1 F1500 X156 Y97.08 E146.96403
M204 S2000
G1 F2400 E146.16403
G0 F7500 X154 Y97.08
M204 S500
G1 F2400 E146.96403
G1 F1500 X154 Y122.92 E148.16725
M204 S2000
G1 F2400 E147.36725
G0 F7500 X152 Y122.92
M204 S500
G1 F2400 E148.16725
G1 F1500 X152 Y97.08 E149.37047
M204 S2000
G1 F2400 E148.57047
G0 F7500 X125.424 Y97
M204 S500
G1 F2400 E149.37047
G1 F1500 X125.424 Y123 E150.58114
G1 X99.424 Y123 E151.79181
G1 X99.424 Y97 E153.00247
G1 X125.424 Y97 E154.21314
M204 S2000
G0 F7500 X125.344 Y98
M204 S500
G1 F1500 X99.504 Y98 E155.41636
M204 S2000
G0 F7500 X100 Y97.08
M204 S500
G1 F1500 X100 Y122.92 E156.61958
M204 S2000
G0 F7500 X99.504 Y122
M204 S500
G1 F1500 X125.344 Y122 E157.8228
M204 S2000
G1 F2400 E157.0228
G0 F7500 X124 Y122.92
M204 S500
G1 F2400 E157.8228
G1 F1500 X124 Y97.08 E159.02602
M204 S2000
G1 F2400 E158.22602
G0 F7500 X122 Y97.08
M204 S500
G1 F2400 E159.02602
G1 F1500 X122 Y122.92 E160.22924
M204 S2000
G1 F2400 E159.42924
G0 F7500 X120 Y122.92
M204 S500
G1 F2400 E160.22924
G1 F1500 X120 Y97.08 E161.43246
M204 S2000
G1 F2400 E160.63246
G0 F7500 X118 Y97.08
M204 S500
G1 F2400 E161.43246
G1 F1500 X118 Y122.92 E162.63567
M204 S2000
G1 F2400 E161.83567
G0 F7500 X116 Y122.92
M204 S500
G1 F2400 E162.63567
G1 F1500 X116 Y97.08 E163.83889
M204 S2000
G1 F2400 E163.03889
G0 F7500 X114 Y97.08
M204 S500
G1 F2400 E163.83889
G1 F1500 X114 Y122.92 E165.04211
M204 S2000
G1 F2400 E164.24211
G0 F7500 X112 Y122.92
M204 S500
G1 F2400 E165.04211
G1 F1500 X112 Y97.08 E166.24533
M204 S2000
G1 F2400 E165.44533
G0 F7500 X110 Y97.08
M204 S500
G1 F2400 E166.24533
G1 F1500 X110 Y122.92 E167.44855
M204 S2000
G1 F2400 E166.64855
G0 F7500 X108 Y122.92
M204 S500
G1 F2400 E167.44855
G1 F1500 X108 Y97.08 E168.65177
M204 S2000
G1 F2400 E167.85177
G0 F7500 X106 Y97.08
M204 S500
G1 F2400 E168.65177
G1 F1500 X106 Y122.92 E169.85499
M204 S2000
G1 F2400 E169.05499
G0 F7500 X104 Y122.92
M204 S500
G1 F2400 E169.85499
G1 F1500 X104 Y97.08 E171.0582
M204 S2000
G1 F2400 E170.2582
G0 F7500 X102 Y97.08
M204 S500
G1 F2400 E171.0582
G1 F1500 X102 Y122.92 E172.26142
M204 S2000
G1 F2400 E171.46142
G0 F7500 X102 Y123.865
G0 X98.571 Y123.853
G0 X98.559 Y120
G0 X99.504 Y120
M204 S500
G1 F2400 E172.26142
G1 F1500 X125.344 Y120 E173.46464
M204 S2000
G1 F2400 E172.66464
G0 F7500 X125.344 Y118
M204 S500
G1 F2400 E173.46464
G1 F1500 X99.504 Y118 E174.66786
M204 S2000
G1 F2400 E173.86786
G0 F7500 X99.504 Y116
M204 S500
G1 F2400 E174.66786
G1 F1500 X125.344 Y116 E175.87108
M204 S2000
G1 F2400 E175.07108
G0 F7500 X125.344 Y114
M204 S500
G1 F2400 E175.87108
G1 F1500 X99.504 Y114 E177.0743
M204 S2000
G1 F2400 E176.2743
G0 F7500 X99.504 Y112
M204 S500
G1 F2400 E177.0743
G1 F1500 X125.344 Y112 E178.27752
M204 S2000
G1 F2400 E177.47752
G0 F7500 X125.344 Y110
M204 S500
G1 F2400 E178.27752
G1 F1500 X99.504 Y110 E179.48074
M204 S2000
G1 F2400 E178.68074
G0 F7500 X99.504 Y108
M204 S500
G1 F2400 E179.48074
G1 F1500 X125.344 Y108 E180.68395
M204 S2000
G1 F2400 E179.88395
G0 F7500 X125.344 Y106
M204 S500
G1 F2400 E180.68395
G1 F1500 X99.504 Y106 E181.88717
M204 S2000
G1 F2400 E181.08717
G0 F7500 X99.504 Y104
M204 S500
G1 F2400 E181.88717
G1 F1500 X125.344 Y104 E183.09039
M204 S2000
G1 F2400 E182.29039
G0 F7500 X125.344 Y102
M204 S500
G1 F2400 E183.09039
G1 F1500 X99.504 Y102 E184.29361
M204 S2000
G1 F2400 E183.49361
G0 F7500 X99.504 Y100
M204 S500
G1 F2400 E184.29361
G1 F1500 X125.344 Y100 E185.49683
M204 S2000
G1 F2400 E184.69683
;MESH:MeshyMerge.stl
G0 F7500 X126.289 Y100
G0 X126.277 Y123.853
G0 X125.342 Y127.335
G0 X94.424 Y128.6
M204 S500
;TYPE:WALL-INNER
G1 F2400 E185.49683
G1 F1500 X93.999 Y128.425 E185.51823
G1 X93.824 Y128.089 E185.53587
G1 X93.824 Y92 E187.21633
G1 X93.999 Y91.575 E187.23773
G1 X94.335 Y91.4 E187.25537
G1 X130.424 Y91.4 E188.93582
G1 X130.848 Y91.576 E188.9572
G1 X131.024 Y92 E188.97858
G1 X131.024 Y128.089 E190.65903
G1 X130.848 Y128.424 E190.67665
G1 X130.513 Y128.6 E190.69427
G1 X94.424 Y128.6 E192.37473
M204 S2000
G0 F7500 X94.422 Y129.299
G0 X93.197 Y129.227
G0 X93.025 Y129.399
M204 S500
G1 F1500 X131.824 Y129.4 E194.18137
G1 X131.824 Y90.6 E195.98806
G1 X93.025 Y90.601 E197.79471
G1 X93.025 Y129.399 E199.6013
M204 S2000
G0 F7500 X92.625 Y129.799
M204 S500
;TYPE:WALL-OUTER
G1 F1500 X132.224 Y129.8 E201.4452
G1 X132.224 Y90.2 E203.28914
G1 X92.625 Y90.201 E205.13304
G1 X92.625 Y129.799 E206.97689
M204 S2000
G1 F2400 E206.17689
G0 F7500 X92.894 Y129.53
G0 X94.422 Y129.219
G0 X94.427 Y128.781
G0 X94.424 Y128.2
M204 S500
G1 F2400 E206.97689
G1 F1500 X94.282 Y128.142 E206.98403
G1 X94.226 Y128.035 E206.98965
G1 X94.224 Y92 E208.66759
G1 X94.282 Y91.858 E208.67473
G1 X94.389 Y91.802 E208.68036
G1 X130.424 Y91.8 E210.3583
G1 X130.566 Y91.858 E210.36544
G1 X130.624 Y92 E210.37258
G1 X130.622 Y128.035 E212.05052
G1 X130.566 Y128.142 E212.05615
G1 X130.459 Y128.198 E212.06177
G1 X94.424 Y128.2 E213.73971
M204 S2000
G0 F7500 X94.394 Y129
M204 S500
;TYPE:SKIN
G1 F1382.5 X93.742 Y129.03 E213.77269
G1 F1456.3 X93.39 Y129.03 E213.78957
G1 X93.39 Y128.703 E213.80525
G1 F1395.3 X93.424 Y128.165 E213.83224
G1 F1357.5 X93.75 Y128.696 E213.8643
G1 F1345.3 X94.394 Y129 E213.90127
M204 S2000
G0 F7500 X94.392 Y129.299
G0 X93.197 Y129.227
G0 X93.125 Y128.149
G0 X93.425 Y128.149
M204 S500
G1 F1244.8 X93.424 Y92.004 E215.92936
M204 S2000
G0 F7500 X93.423 Y91.975
M204 S500
G1 F1379.3 X93.391 Y91.321 E215.96252
G1 F1456.3 X93.39 Y90.966 E215.97954
G1 X93.717 Y90.966 E215.99523
G1 F1395.3 X94.252 Y91 E216.02206
G1 F1357.5 X93.722 Y91.327 E216.0541
G1 F1342.3 X93.423 Y91.975 E216.09124
M204 S2000
G0 F7500 X93.125 Y91.975
G0 X93.197 Y90.773
G0 X94.271 Y90.7
G0 X94.271 Y91.001
M204 S500
G1 F1244.8 X130.412 Y91 E218.11911
M204 S2000
G0 F7500 X130.412 Y90.7
G0 X131.652 Y90.772
G0 X131.724 Y91.979
G0 X131.425 Y91.979
M204 S500
G1 F1333.3 X131.113 Y91.308 E218.15787
G1 F1351.4 X130.444 Y90.999 E218.19596
G1 F1395.3 X131.095 Y90.968 E218.22858
G1 F1449.3 X131.457 Y90.967 E218.24603
G1 X131.457 Y91.322 E218.26314
G1 F1376.1 X131.425 Y91.979 E218.29652
M204 S2000
G0 F7500 X131.424 Y92.008
M204 S500
G1 F1247.4 X131.423 Y128.149 E220.32018
M204 S2000
G0 F7500 X131.724 Y128.149
G0 X131.652 Y129.228
G0 X130.587 Y129.299
G0 X130.589 Y129
M204 S500
G1 F1395.3 X131.106 Y128.682 E220.35056
G1 F1398.6 X131.424 Y128.163 E220.38096
G1 X131.458 Y128.709 E220.40828
G1 F1456.3 X131.458 Y129.034 E220.42387
G1 X131.133 Y129.033 E220.43946
G1 F1395.3 X130.589 Y129 E220.46674
M204 S2000
G0 F7500 X130.573 Y128.999
M204 S500
G1 F1244.8 X112.5 Y128.999 E221.48081
G1 F1255.2 X94.427 Y128.998 E222.48647
M204 S2000
G1 F2400 E221.68647
G0 F7500 X94.425 Y129.299
G0 X131.652 Y129.228
G0 X132.004 Y129.13
G0 X133.089 Y129.13
G0 X141.759 Y129.13
G0 X143.025 Y129.399
M204 S500
;TYPE:WALL-INNER
G1 F2400 E222.48647
G1 F1500 X181.824 Y129.4 E224.29311
G1 X181.824 Y90.6 E226.0998
G1 X143.025 Y90.601 E227.90645
G1 X143.025 Y129.399 E229.71304
M204 S2000
G0 F7500 X143.125 Y129.13
G0 X143.125 Y128.425
G0 X143.999 Y128.425
M204 S500
G1 F1500 X143.824 Y128.089 E229.73068
G1 X143.824 Y92 E231.41114
G1 X143.999 Y91.575 E231.43254
G1 X144.335 Y91.4 E231.45018
G1 X180.424 Y91.4 E233.13064
G1 X180.848 Y91.576 E233.15201
G1 X181.024 Y92 E233.17339
G1 X181.024 Y128.089 E234.85385
G1 X180.848 Y128.424 E234.87147
G1 X180.513 Y128.6 E234.88909
G1 X144.424 Y128.6 E236.56954
G1 X143.999 Y128.425 E236.59094
M204 S2000
G0 F7500 X144.282 Y128.142
M204 S500
;TYPE:WALL-OUTER
G1 F1500 X144.226 Y128.035 E236.59657
G1 X144.224 Y92 E238.27451
G1 X144.282 Y91.858 E238.28165
G1 X144.389 Y91.802 E238.28727
G1 X180.424 Y91.8 E239.96521
G1 X180.566 Y91.858 E239.97236
G1 X180.624 Y92 E239.9795
G1 X180.622 Y128.035 E241.65744
G1 X180.566 Y128.142 E241.66306
G1 X180.459 Y128.198 E241.66869
G1 X144.424 Y128.2 E243.34663
G1 X144.282 Y128.142 E243.35377
M204 S2000
G1 F2400 E242.55377
G0 F7500 X143.924 Y128.142
G0 X143.871 Y128.552
G0 X143.225 Y128.552
G0 X142.625 Y129.799
M204 S500
G1 F2400 E243.35377
G1 F1500 X182.224 Y129.8 E245.19766
G1 X182.224 Y90.2 E247.04161
G1 X142.625 Y90.201 E248.8855
G1 X142.625 Y129.799 E250.72935
M204 S2000
G0 F7500 X142.894 Y129.53
G0 X144.426 Y129.299
G0 X144.428 Y128.998
M204 S500
;TYPE:SKIN
G1 F1255.2 X162.501 Y128.998 E251.73501
G1 F1244.8 X180.574 Y128.999 E252.74908
M204 S2000
G0 F7500 X180.589 Y129
M204 S500
G1 F1395.3 X181.106 Y128.682 E252.77946
G1 F1398.6 X181.424 Y128.163 E252.80986
G1 X181.458 Y128.709 E252.83718
G1 F1456.3 X181.458 Y129.034 E252.85277
G1 X181.133 Y129.033 E252.86836
G1 F1395.3 X180.589 Y129 E252.89564
M204 S2000
G0 F7500 X180.587 Y129.299
G0 X181.652 Y129.228
G0 X181.724 Y128.149
G0 X181.423 Y128.149
M204 S500
G1 F1247.4 X181.424 Y92.008 E254.9193
M204 S2000
G0 F7500 X181.425 Y91.979
M204 S500
G1 F1333.3 X181.113 Y91.308 E254.95806
G1 F1351.4 X180.444 Y90.999 E254.99615
G1 F1395.3 X181.095 Y90.968 E255.02877
G1 F1449.3 X181.457 Y90.967 E255.04622
G1 X181.457 Y91.322 E255.06333
