;FLAVOR:Marlin
;TIME:17368
;Filament used: 9.9626m
;Layer height: 0.17
;MINX:91.098
;MINY:123.222
;MINZ:0.17
;MAXX:173.311
;MAXY:189.026
;MAXZ:28.05
;TARGET_MACHINE.NAME:Creality Ender-3 S1 Pro
;POSTPROCESSED
;  [FilamentChange]
;  [FilamentChange]
;Generated with Cura_SteamEngine 5.7.0
M140 S60
M105
M190 S60
M104 S200
M105
M109 S200
M82 ;absolute extrusion mode
; Ender 3 S1 Pro Custom Start G-code
G92 E0 ; Reset Extruder
G28 ; Home all axes
M420 S1 Z10 ; Use saved Bed Mesh
G1 Z2.0 F3000 ; Move Z Axis up little to prevent scratching of Heat Bed
G1 X0.1 Y20 Z0.3 F5000.0 ; Move to start position
G1 X0.1 Y200.0 Z0.3 F1500.0 E15 ; Draw the first line
G1 X0.4 Y200.0 Z0.3 F5000.0 ; Move to side a little
G1 X0.4 Y20 Z0.3 F1500.0 E30 ; Draw the second line
G92 E0 ; Reset Extruder
G1 Z2.0 F3000 ; Move Z Axis up little to prevent scratching of Heat Bed
G1 X5 Y20 Z0.3 F5000.0 ; Move over to prevent blob squish
G92 E0
G92 E0
G1 F2400 E-0.8
;LAYER_COUNT:165
;LAYER:0
M107
M204 S2000
G0 F7500 X94.178 Y124.99 Z0.17
M204 S500
;TYPE:SKIRT
G1 F2400 E0
G1 F1500 X96.201 Y123.783 E0.0666
G1 X97.919 Y123.501 E0.11582
G1 X129.75 Y123.426 E1.01572
G1 X131.653 Y123.893 E1.07111
G1 X131.993 Y124.071 E1.08196
G1 X132.816 Y123.579 E1.10907
G1 X134.532 Y123.297 E1.15824
G1 X166.364 Y123.222 E2.05817
G1 X168.26 Y123.688 E2.11336
G1 X170.288 Y124.741 E2.17796
G1 X171.747 Y126.302 E2.23837
G1 X172.954 Y128.325 E2.30497
G1 X173.236 Y130.043 E2.35419
G1 X173.311 Y181.875 E3.81954
G1 X172.845 Y183.771 E3.87474
G1 X171.792 Y185.799 E3.93934
G1 X170.231 Y187.258 E3.99974
G1 X168.208 Y188.465 E4.06634
G1 X166.49 Y188.747 E4.11556
G1 X134.659 Y188.822 E5.01546
G1 X132.756 Y188.355 E5.07086
G1 X132.416 Y188.177 E5.08171
G1 X131.593 Y188.669 E5.10882
G1 X129.877 Y188.951 E5.15798
G1 X98.045 Y189.026 E6.05791
G1 X96.149 Y188.56 E6.11311
G1 X94.121 Y187.507 E6.17771
G1 X92.662 Y185.946 E6.23811
G1 X91.455 Y183.923 E6.30471
G1 X91.173 Y182.205 E6.35393
G1 X91.098 Y130.373 E7.81928
G1 X91.564 Y128.477 E7.87448
G1 X92.617 Y126.449 E7.93908
G1 X94.178 Y124.99 E7.99949
M204 S2000
G0 F7500 X94.417 Y125.314
M204 S500
G1 F1500 X96.341 Y124.166 E8.06283
G1 X97.984 Y123.896 E8.1099
G1 X129.704 Y123.826 E9.00666
G1 X131.509 Y124.269 E9.05921
G1 X132.005 Y124.529 E9.07504
G1 X132.954 Y123.962 E9.10629
G1 X134.597 Y123.692 E9.15336
G1 X166.318 Y123.622 E10.05015
G1 X168.117 Y124.064 E10.10253
G1 X170.043 Y125.064 E10.16388
G1 X171.423 Y126.541 E10.22103
G1 X172.571 Y128.465 E10.28437
G1 X172.841 Y130.108 E10.33144
G1 X172.911 Y181.829 E11.79365
G1 X172.469 Y183.628 E11.84602
G1 X171.469 Y185.554 E11.90737
G1 X169.992 Y186.934 E11.96452
G1 X168.068 Y188.082 E12.02786
G1 X166.425 Y188.352 E12.07493
G1 X134.705 Y188.422 E12.9717
G1 X132.9 Y187.979 E13.02424
G1 X132.404 Y187.719 E13.04007
G1 X131.455 Y188.286 E13.07132
G1 X129.812 Y188.556 E13.1184
G1 X98.091 Y188.626 E14.01519
G1 X96.292 Y188.184 E14.06756
G1 X94.366 Y187.184 E14.12891
G1 X92.986 Y185.707 E14.18606
G1 X91.838 Y183.783 E14.2494
G1 X91.568 Y182.14 E14.29647
G1 X91.498 Y130.419 E15.75868
G1 X91.94 Y128.62 E15.81106
G1 X92.94 Y126.694 E15.87241
G1 X94.417 Y125.314 E15.92955
M204 S2000
G0 F7500 X94.659 Y125.635
M204 S500
G1 F1500 X96.479 Y124.549 E15.98947
G1 X98.049 Y124.291 E16.03445
G1 X129.658 Y124.226 E16.92808
G1 X131.365 Y124.645 E16.97777
G1 X132.018 Y124.987 E16.99861
G1 X133.092 Y124.345 E17.03398
G1 X134.662 Y124.087 E17.07896
G1 X166.271 Y124.022 E17.97259
G1 X167.975 Y124.441 E18.02219
G1 X169.798 Y125.387 E18.08026
G1 X171.102 Y126.783 E18.13426
G1 X172.188 Y128.603 E18.19418
G1 X172.446 Y130.173 E18.23916
G1 X172.511 Y181.782 E19.69821
G1 X172.092 Y183.486 E19.74782
G1 X171.146 Y185.309 E19.80588
G1 X169.75 Y186.613 E19.85989
G1 X167.93 Y187.699 E19.91981
G1 X166.36 Y187.957 E19.96479
G1 X134.751 Y188.022 E20.85841
G1 X133.044 Y187.603 E20.9081
G1 X132.391 Y187.261 E20.92894
G1 X131.317 Y187.903 E20.96432
G1 X129.747 Y188.161 E21.0093
G1 X98.138 Y188.226 E21.90292
G1 X96.434 Y187.807 E21.95253
G1 X94.611 Y186.861 E22.01059
G1 X93.307 Y185.465 E22.0646
G1 X92.221 Y183.645 E22.12452
G1 X91.963 Y182.075 E22.1695
G1 X91.898 Y130.466 E23.62854
G1 X92.317 Y128.762 E23.67815
G1 X93.263 Y126.939 E23.73622
G1 X94.659 Y125.635 E23.79022
M204 S2000
G0 F7500 X94.901 Y125.956
M204 S500
G1 F1500 X96.617 Y124.932 E23.84672
G1 X98.114 Y124.686 E23.88961
G1 X129.612 Y124.626 E24.78009
G1 X131.221 Y125.021 E24.82693
G1 X132.031 Y125.445 E24.85278
G1 X133.23 Y124.728 E24.89227
G1 X134.727 Y124.482 E24.93516
G1 X166.225 Y124.422 E25.82565
G1 X167.832 Y124.817 E25.87243
G1 X169.553 Y125.71 E25.92725
G1 X170.781 Y127.025 E25.97811
G1 X171.805 Y128.741 E26.03461
G1 X172.051 Y130.238 E26.0775
G1 X172.111 Y181.736 E27.5334
G1 X171.716 Y183.343 E27.58019
G1 X170.823 Y185.064 E27.635
G1 X169.508 Y186.292 E27.68587
G1 X167.792 Y187.316 E27.74236
G1 X166.295 Y187.562 E27.78525
G1 X134.797 Y187.622 E28.67574
G1 X133.188 Y187.227 E28.72258
G1 X132.378 Y186.803 E28.74842
G1 X131.179 Y187.52 E28.78792
G1 X129.682 Y187.766 E28.83081
G1 X98.184 Y187.826 E29.72129
G1 X96.577 Y187.431 E29.76808
G1 X94.856 Y186.538 E29.82289
G1 X93.628 Y185.223 E29.87376
G1 X92.604 Y183.507 E29.93025
G1 X92.358 Y182.01 E29.97314
G1 X92.298 Y130.512 E31.42905
G1 X92.693 Y128.905 E31.47583
G1 X93.586 Y127.184 E31.53065
G1 X94.901 Y125.956 E31.58151
M204 S2000
G0 F7500 X95.143 Y126.277
M204 S500
G1 F1500 X96.755 Y125.315 E31.63458
G1 X98.179 Y125.081 E31.67538
G1 X129.566 Y125.026 E32.56273
G1 X131.075 Y125.397 E32.60666
G1 X132.044 Y125.903 E32.63757
G1 X133.368 Y125.111 E32.68118
G1 X134.792 Y124.877 E32.72198
G1 X166.179 Y124.822 E33.60933
G1 X167.689 Y125.193 E33.65329
G1 X169.308 Y126.033 E33.70485
G1 X170.46 Y127.267 E33.75258
G1 X171.422 Y128.879 E33.80565
G1 X171.656 Y130.303 E33.84645
G1 X171.711 Y181.69 E35.29921
G1 X171.34 Y183.2 E35.34317
G1 X170.5 Y184.819 E35.39474
G1 X169.266 Y185.971 E35.44246
G1 X167.654 Y186.933 E35.49554
G1 X166.23 Y187.167 E35.53633
G1 X134.843 Y187.222 E36.42368
G1 X133.334 Y186.851 E36.46761
G1 X132.365 Y186.345 E36.49852
G1 X131.041 Y187.137 E36.54213
G1 X129.617 Y187.371 E36.58293
G1 X98.23 Y187.426 E37.47028
G1 X96.72 Y187.055 E37.51424
G1 X95.101 Y186.215 E37.5658
G1 X93.949 Y184.981 E37.61353
G1 X92.987 Y183.369 E37.6666
G1 X92.753 Y181.945 E37.7074
G1 X92.698 Y130.558 E39.16017
G1 X93.069 Y129.048 E39.20413
G1 X93.909 Y127.429 E39.25569
G1 X95.143 Y126.277 E39.30342
M204 S2000
G0 F7500 X95.385 Y126.598
M204 S500
G1 F1500 X96.893 Y125.698 E39.35306
G1 X98.244 Y125.476 E39.39177
G1 X129.519 Y125.426 E40.27595
G1 X130.934 Y125.774 E40.31715
G1 X132.057 Y126.361 E40.35297
G1 X133.506 Y125.494 E40.40071
G1 X134.857 Y125.272 E40.43942
G1 X166.132 Y125.222 E41.3236
G1 X167.547 Y125.57 E41.36479
G1 X169.063 Y126.356 E41.41307
G1 X170.139 Y127.509 E41.45765
G1 X171.039 Y129.017 E41.5073
G1 X171.261 Y130.368 E41.54601
G1 X171.311 Y181.643 E42.99561
G1 X170.963 Y183.058 E43.03681
G1 X170.177 Y184.574 E43.08508
G1 X169.024 Y185.65 E43.12967
G1 X167.516 Y186.55 E43.17932
G1 X166.165 Y186.772 E43.21802
G1 X134.89 Y186.822 E44.1022
G1 X133.475 Y186.474 E44.1434
G1 X132.352 Y185.887 E44.17922
G1 X130.903 Y186.754 E44.22696
G1 X129.552 Y186.976 E44.26567
G1 X98.277 Y187.026 E45.14985
G1 X96.862 Y186.678 E45.19104
G1 X95.346 Y185.892 E45.23932
G1 X94.27 Y184.739 E45.28391
G1 X93.37 Y183.231 E45.33356
G1 X93.148 Y181.88 E45.37226
G1 X93.098 Y130.605 E46.82186
G1 X93.446 Y129.19 E46.86306
G1 X94.232 Y127.674 E46.91134
G1 X95.385 Y126.598 E46.95592
M204 S2000
G0 F7500 X95.627 Y126.919
M204 S500
G1 F1500 X97.031 Y126.081 E47.00215
G1 X98.309 Y125.871 E47.03876
G1 X129.473 Y125.826 E47.91981
G1 X130.792 Y126.15 E47.9582
G1 X132.108 Y126.838 E48.00019
G1 X132.28 Y126.691 E48.00658
G1 X133.644 Y125.877 E48.05149
G1 X134.922 Y125.667 E48.0881
G1 X166.086 Y125.622 E48.96915
G1 X167.404 Y125.946 E49.00752
G1 X168.818 Y126.679 E49.05254
G1 X169.818 Y127.751 E49.09399
G1 X170.656 Y129.155 E49.14022
G1 X170.866 Y130.433 E49.17683
G1 X170.911 Y181.597 E50.62329
G1 X170.587 Y182.915 E50.66166
G1 X169.854 Y184.329 E50.70669
G1 X168.782 Y185.329 E50.74814
G1 X167.378 Y186.167 E50.79436
G1 X166.1 Y186.377 E50.83098
G1 X134.936 Y186.422 E51.71202
G1 X133.617 Y186.098 E51.75042
G1 X132.301 Y185.41 E51.7924
G1 X132.129 Y185.557 E51.7988
G1 X130.765 Y186.371 E51.8437
G1 X129.487 Y186.581 E51.88032
G1 X98.323 Y186.626 E52.76136
G1 X97.005 Y186.302 E52.79973
G1 X95.591 Y185.569 E52.84476
G1 X94.591 Y184.497 E52.8862
G1 X93.753 Y183.093 E52.93243
G1 X93.543 Y181.815 E52.96904
G1 X93.498 Y130.651 E54.41551
G1 X93.822 Y129.333 E54.45388
G1 X94.555 Y127.919 E54.49891
G1 X95.627 Y126.919 E54.54035
M204 S2000
G0 F7500 X95.872 Y127.238
M204 S500
G1 F1500 X97.169 Y126.464 E54.58305
G1 X98.374 Y126.266 E54.61758
G1 X129.427 Y126.226 E55.49548
G1 X130.648 Y126.526 E55.53103
G1 X131.895 Y127.172 E55.57073
G1 X132.118 Y127.376 E55.57927
G1 X132.485 Y127.034 E55.59346
G1 X133.782 Y126.26 E55.63616
G1 X134.987 Y126.062 E55.67068
G1 X166.04 Y126.022 E56.54858
G1 X167.261 Y126.322 E56.58413
G1 X168.571 Y127.001 E56.62584
G1 X169.499 Y127.996 E56.66431
G1 X170.273 Y129.293 E56.70701
G1 X170.471 Y130.498 E56.74153
G1 X170.511 Y181.551 E58.18486
G1 X170.211 Y182.772 E58.2204
G1 X169.532 Y184.082 E58.26212
G1 X168.537 Y185.01 E58.30058
G1 X167.24 Y185.784 E58.34328
G1 X166.035 Y185.982 E58.37781
G1 X134.982 Y186.022 E59.25571
G1 X133.761 Y185.722 E59.29126
G1 X132.514 Y185.076 E59.33096
G1 X132.291 Y184.872 E59.33951
G1 X131.924 Y185.214 E59.35369
G1 X130.627 Y185.988 E59.39639
G1 X129.422 Y186.186 E59.43091
G1 X98.369 Y186.226 E60.30882
G1 X97.148 Y185.926 E60.34436
G1 X95.838 Y185.247 E60.38608
G1 X94.91 Y184.252 E60.42454
G1 X94.136 Y182.955 E60.46724
G1 X93.938 Y181.75 E60.50177
G1 X93.898 Y130.697 E61.94509
G1 X94.198 Y129.476 E61.98064
G1 X94.877 Y128.166 E62.02235
G1 X95.872 Y127.238 E62.06082
M204 S2000
G0 F7500 X96.114 Y127.56
M204 S500
G1 F1500 X97.309 Y126.847 E62.10016
G1 X98.439 Y126.661 E62.13253
G1 X129.381 Y126.626 E63.0073
G1 X130.505 Y126.902 E63.04002
G1 X131.711 Y127.527 E63.07842
G1 X132.098 Y127.942 E63.09446
G1 X132.727 Y127.356 E63.11877
G1 X133.922 Y126.643 E63.15811
G1 X135.052 Y126.457 E63.19048
G1 X165.994 Y126.422 E64.06525
G1 X167.118 Y126.698 E64.09797
G1 X168.324 Y127.323 E64.13637
G1 X169.177 Y128.238 E64.17174
G1 X169.89 Y129.433 E64.21108
G1 X170.076 Y130.563 E64.24345
G1 X170.111 Y181.505 E65.68364
G1 X169.835 Y182.629 E65.71636
G1 X169.21 Y183.835 E65.75476
G1 X168.295 Y184.688 E65.79013
G1 X167.1 Y185.401 E65.82947
G1 X165.97 Y185.587 E65.86185
G1 X135.028 Y185.622 E66.73661
G1 X133.904 Y185.346 E66.76933
G1 X132.698 Y184.721 E66.80773
G1 X132.311 Y184.306 E66.82378
G1 X131.682 Y184.892 E66.84808
G1 X130.487 Y185.605 E66.88742
G1 X129.357 Y185.791 E66.9198
G1 X98.415 Y185.826 E67.79456
G1 X97.291 Y185.55 E67.82728
G1 X96.085 Y184.925 E67.86568
G1 X95.232 Y184.01 E67.90105
G1 X94.519 Y182.815 E67.94039
G1 X94.333 Y181.685 E67.97277
G1 X94.298 Y130.743 E69.41295
G1 X94.574 Y129.619 E69.44567
G1 X95.199 Y128.413 E69.48408
G1 X96.114 Y127.56 E69.51944
M204 S2000
G0 F7500 X96.356 Y127.882
M204 S500
G1 F1500 X97.449 Y127.23 E69.55542
G1 X98.504 Y127.056 E69.58565
G1 X129.334 Y127.026 E70.45725
G1 X130.363 Y127.279 E70.48721
G1 X131.464 Y127.849 E70.52226
G1 X132.096 Y128.528 E70.54848
G1 X132.183 Y128.41 E70.55263
G1 X132.969 Y127.678 E70.58299
G1 X134.062 Y127.026 E70.61897
G1 X135.117 Y126.852 E70.6492
G1 X165.947 Y126.822 E71.5208
G1 X166.976 Y127.075 E71.55076
G1 X168.077 Y127.645 E71.58581
G1 X168.855 Y128.48 E71.61807
G1 X169.507 Y129.573 E71.65405
G1 X169.681 Y130.628 E71.68428
G1 X169.711 Y181.458 E73.1213
G1 X169.458 Y182.487 E73.15126
G1 X168.888 Y183.588 E73.18631
G1 X168.053 Y184.366 E73.21858
G1 X166.96 Y185.018 E73.25456
G1 X165.905 Y185.192 E73.28479
G1 X135.075 Y185.222 E74.15638
G1 X134.046 Y184.969 E74.18634
G1 X132.945 Y184.399 E74.22139
G1 X132.313 Y183.72 E74.24762
G1 X132.226 Y183.838 E74.25176
G1 X131.44 Y184.57 E74.28213
G1 X130.347 Y185.222 E74.31811
G1 X129.292 Y185.396 E74.34834
G1 X98.462 Y185.426 E75.21993
G1 X97.433 Y185.173 E75.24989
G1 X96.332 Y184.603 E75.28494
G1 X95.554 Y183.768 E75.31721
G1 X94.902 Y182.675 E75.35319
G1 X94.728 Y181.62 E75.38342
G1 X94.698 Y130.79 E76.82044
G1 X94.951 Y129.761 E76.8504
G1 X95.521 Y128.66 E76.88545
G1 X96.356 Y127.882 E76.91771
M204 S2000
G0 F7500 X96.598 Y128.204
M204 S500
G1 F1500 X97.589 Y127.613 E76.95033
G1 X98.569 Y127.451 E76.97841
G1 X129.288 Y127.426 E77.84687
G1 X130.22 Y127.655 E77.87401
G1 X131.217 Y128.171 E77.90574
G1 X131.92 Y128.926 E77.93491
G1 X132.145 Y129.304 E77.94735
G1 X132.456 Y128.703 E77.96648
G1 X133.211 Y128 E77.99564
G1 X134.202 Y127.409 E78.02826
G1 X135.182 Y127.247 E78.05634
G1 X165.901 Y127.222 E78.9248
G1 X166.833 Y127.451 E78.95194
G1 X167.83 Y127.967 E78.98367
G1 X168.533 Y128.722 E79.01284
G1 X169.124 Y129.713 E79.04546
G1 X169.286 Y130.693 E79.07354
G1 X169.311 Y181.412 E80.50742
G1 X169.082 Y182.344 E80.53456
G1 X168.566 Y183.341 E80.56629
G1 X167.811 Y184.044 E80.59546
G1 X166.82 Y184.635 E80.62808
G1 X165.84 Y184.797 E80.65616
G1 X135.121 Y184.822 E81.52462
G1 X134.189 Y184.593 E81.55175
G1 X133.192 Y184.077 E81.58349
G1 X132.489 Y183.322 E81.61266
G1 X132.264 Y182.944 E81.62509
G1 X131.953 Y183.545 E81.64422
G1 X131.198 Y184.248 E81.67339
G1 X130.207 Y184.839 E81.70601
G1 X129.227 Y185.001 E81.73409
G1 X98.508 Y185.026 E82.60255
G1 X97.576 Y184.797 E82.62968
G1 X96.579 Y184.281 E82.66142
G1 X95.876 Y183.526 E82.69059
G1 X95.285 Y182.535 E82.72321
G1 X95.123 Y181.555 E82.75129
G1 X95.098 Y130.836 E84.18517
G1 X95.327 Y129.904 E84.2123
G1 X95.843 Y128.907 E84.24404
G1 X96.598 Y128.204 E84.27321
M204 S2000
G0 F7500 X96.837 Y128.528
M204 S500
G1 F1500 X97.729 Y127.996 E84.30257
G1 X98.634 Y127.846 E84.3285
G1 X129.242 Y127.826 E85.19383
G1 X130.077 Y128.031 E85.21813
G1 X130.972 Y128.494 E85.24662
G1 X131.596 Y129.165 E85.27253
G1 X132.128 Y130.057 E85.30189
G1 X132.182 Y130.387 E85.31134
G1 X132.316 Y129.843 E85.32718
G1 X132.779 Y128.948 E85.35567
G1 X133.45 Y128.324 E85.38158
G1 X134.342 Y127.792 E85.41094
G1 X135.247 Y127.642 E85.43687
G1 X165.855 Y127.622 E86.30219
G1 X166.69 Y127.827 E86.3265
G1 X167.585 Y128.29 E86.35499
G1 X168.209 Y128.961 E86.38089
G1 X168.741 Y129.853 E86.41026
G1 X168.891 Y130.758 E86.43619
G1 X168.911 Y181.366 E87.86694
G1 X168.706 Y182.201 E87.89124
G1 X168.243 Y183.096 E87.91973
G1 X167.572 Y183.72 E87.94564
G1 X166.68 Y184.252 E87.975
G1 X165.775 Y184.402 E88.00093
G1 X135.167 Y184.422 E88.86626
G1 X134.332 Y184.217 E88.89056
G1 X133.437 Y183.754 E88.91905
G1 X132.813 Y183.083 E88.94496
G1 X132.281 Y182.191 E88.97432
G1 X132.227 Y181.861 E88.98377
G1 X132.093 Y182.405 E88.99961
G1 X131.63 Y183.3 E89.0281
G1 X130.959 Y183.924 E89.054
G1 X130.067 Y184.456 E89.08337
G1 X129.162 Y184.606 E89.1093
G1 X98.554 Y184.626 E89.97462
G1 X97.719 Y184.421 E89.99893
G1 X96.824 Y183.958 E90.02742
G1 X96.2 Y183.287 E90.05332
G1 X95.668 Y182.395 E90.08269
G1 X95.518 Y181.49 E90.10862
G1 X95.498 Y130.882 E91.53936
G1 X95.703 Y130.047 E91.56367
G1 X96.166 Y129.152 E91.59216
G1 X96.837 Y128.528 E91.61807
M204 S2000
G0 F7500 X97.076 Y128.852
M204 S500
G1 F1500 X97.869 Y128.379 E91.64417
G1 X98.7 Y128.241 E91.66798
G1 X129.196 Y128.226 E92.53014
G1 X129.934 Y128.407 E92.55162
G1 X130.727 Y128.817 E92.57686
G1 X131.272 Y129.404 E92.59951
G1 X131.745 Y130.197 E92.62561
G1 X131.883 Y131.028 E92.64943
G1 X131.898 Y181.524 E94.077
G1 X131.717 Y182.262 E94.09849
G1 X131.307 Y183.055 E94.12372
G1 X130.72 Y183.6 E94.14637
G1 X129.927 Y184.073 E94.17247
G1 X129.096 Y184.211 E94.19629
G1 X98.6 Y184.226 E95.05844
G1 X97.862 Y184.045 E95.07993
G1 X97.069 Y183.635 E95.10516
G1 X96.524 Y183.048 E95.12781
G1 X96.051 Y182.255 E95.15391
G1 X95.913 Y181.424 E95.17773
G1 X95.898 Y130.928 E96.60531
G1 X96.079 Y130.19 E96.62679
G1 X96.489 Y129.397 E96.65203
G1 X97.076 Y128.852 E96.67467
M204 S2000
G1 F2400 E95.87467
G0 F7500 X132.511 Y130.724
M204 S500
G1 F2400 E96.67467
G1 F1500 X132.692 Y129.986 E96.69616
